X:1
T:Blumen, 11.10.11.10
T:Blumen, 11.10.11.10
T:Uzziah Christopher Burnap, 1895
T:Public Domain Courtesy of the Cyber Hymnal™
C:Uzziah Christopher Burnap, 1895
Z:Public Domain
Z:Courtesy of the Cyber Hymnal™
%%score ( 1 2 ) ( 3 4 )
L:1/8
Q:1/4=115
M:4/4
K:G
V:1 treble 
V:2 treble 
V:3 bass 
V:4 bass 
V:1
 [B,G]4 [B,B]2 [B,D]2 | [CD]4 [CE]2 [CD]2 | [DA]4 [Fc]2 [DF]2 | [DF]2 [DG]6 | [DB]4 [EB]2 [^EB]2 | %5
 [FB]4 F2 [Fd]2 | [E^c]4 [EF]2 [Ec]2 | [DB]6 z2 | [Ec]4 [Ec]2 [_Ec]2 | [Dc]4 [DA]2 [Dd]2 | %10
 [DB]4 [^CF]2 [CG]2 | [DA]2 [DA]4 z2 | [B,G]4 [DB]2 [B,G]2 | [CG]4 [CF]2 [CE]2 | %14
 [B,D]4 [B,G]2 [CA]2 | [B,G]8 |] %16
V:2
 x8 | x8 | x8 | x8 | x8 | x4 F2 x2 | x8 | x8 | x8 | x8 | x8 | x8 | x8 | x8 | x8 | x8 |] %16
V:3
 [G,,D,]4 [G,,D,]2 [G,,D,]2 | [A,,F,]4 [A,,G,]2 [A,,F,]2 | [D,F,]4 [D,A,]2 [D,C]2 | %3
 [D,C]2 [G,,B,]6 | [G,B,]4 [G,^C]2 [G,D]2 | [F,D]4 [F,D]2 [F,B,]2 | [F,B,]4 [F,^A,]2 (^G,A,) | %7
 [B,,B,]6 z2 | [A,C]4 [A,C]2 [G,A,]2 | [F,A,]4 [F,A,]2 [F,A,]2 | G,4 [E,G,]2 [A,,G,]2 | %11
 [D,F,]2 [D,F,]4 z2 | [G,,G,]4 [G,,D,]2 [G,,=F,]2 | [C,E,]4 [C,F,]2 (G,A,) | %14
 [D,B,]4 [E,G,]2 [D,F,]2 | [G,,G,]8 |] %16
V:4
 x8 | x8 | x8 | x8 | x8 | x8 | x6 F,2 | x8 | x8 | x8 | G,4 x4 | x8 | x8 | x6 C,2 | x8 | x8 |] %16

